icons/type-hierarchy.svg

<svg xmlns="http://www.w3.org/2000/svg" viewBox="0 0 24 24"><path fill="#ab47bc" d="M18 19a2 2 0 0 1-2-2c0-1.11.89-2 2-2a2 2 0 0 1 2 2 2 2 0 0 1-2 2m0-6a4 4 0 0 0-4 4 4 4 0 0 0 4 4 4 4 0 0 0 4-4 4 4 0 0 0-4-4m-6-1.9a1.9 1.9 0 0 0-1.9 1.9 1.9 1.9 0 0 0 1.9 1.9 1.9 1.9 0 0 0 1.9-1.9 1.9 1.9 0 0 0-1.9-1.9M6 19a2 2 0 0 1-2-2c0-1.11.89-2 2-2a2 2 0 0 1 2 2 2 2 0 0 1-2 2m0-6a4 4 0 0 0-4 4 4 4 0 0 0 4 4 4 4 0 0 0 4-4 4 4 0 0 0-4-4m6-9a2 2 0 0 1 2 2 2 2 0 0 1-2 2 2 2 0 0 1-2-2c0-1.11.89-2 2-2m0 6a4 4 0 0 0 4-4 4 4 0 0 0-4-4 4 4 0 0 0-4 4 4 4 0 0 0 4 4"/></svg>

<!--
  - The MIT License (MIT)
  -
  - Copyright (c) 2015-2024 Elior "Mallowigi" Boukhobza
  -
  - Permission is hereby granted, free of charge, to any person obtaining a copy
  - of this software and associated documentation files (the "Software"), to deal
  - in the Software without restriction, including without limitation the rights
  - to use, copy, modify, merge, publish, distribute, sublicense, and/or sell
  - copies of the Software, and to permit persons to whom the Software is
  - furnished to do so, subject to the following conditions:
  -
  - The above copyright notice and this permission notice shall be included in all
  - copies or substantial portions of the Software.
  -
  - THE SOFTWARE IS PROVIDED "AS IS", WITHOUT WARRANTY OF ANY KIND, EXPRESS OR
  - IMPLIED, INCLUDING BUT NOT LIMITED TO THE WARRANTIES OF MERCHANTABILITY,
  - FITNESS FOR A PARTICULAR PURPOSE AND NONINFRINGEMENT. IN NO EVENT SHALL THE
  - AUTHORS OR COPYRIGHT HOLDERS BE LIABLE FOR ANY CLAIM, DAMAGES OR OTHER
  - LIABILITY, WHETHER IN AN ACTION OF CONTRACT, TORT OR OTHERWISE, ARISING FROM,
  - OUT OF OR IN CONNECTION WITH THE SOFTWARE OR THE USE OR OTHER DEALINGS IN THE
  - SOFTWARE.
  -
  -->


<svg xmlns="http://www.w3.org/2000/svg" version="1.1" width="16px" height="16px" viewBox="0 0 24 24">
  <path fill="#AB47BC"
        d="M18,19C16.89,19 16,18.1 16,17C16,15.89 16.89,15 18,15A2,2 0 0,1 20,17A2,2 0 0,1 18,19M18,13A4,4 0 0,0 14,17A4,4 0 0,0 18,21A4,4 0 0,0 22,17A4,4 0 0,0 18,13M12,11.1A1.9,1.9 0 0,0 10.1,13A1.9,1.9 0 0,0 12,14.9A1.9,1.9 0 0,0 13.9,13A1.9,1.9 0 0,0 12,11.1M6,19C4.89,19 4,18.1 4,17C4,15.89 4.89,15 6,15A2,2 0 0,1 8,17A2,2 0 0,1 6,19M6,13A4,4 0 0,0 2,17A4,4 0 0,0 6,21A4,4 0 0,0 10,17A4,4 0 0,0 6,13M12,4A2,2 0 0,1 14,6A2,2 0 0,1 12,8C10.89,8 10,7.1 10,6C10,4.89 10.89,4 12,4M12,10A4,4 0 0,0 16,6A4,4 0 0,0 12,2A4,4 0 0,0 8,6A4,4 0 0,0 12,10Z"/>
</svg>
